resources/haticons/SVG/ad-block-plus.svg

<!-- Generated by IcoMoon.io -->
<svg version="1.1" xmlns="http://www.w3.org/2000/svg" width="24" height="24" viewBox="0 0 24 24">
<title>ad-block-plus</title>
<path d="M17.025 24h-10.050l-6.975-6.975v-10.050l6.975-6.975h10.050l6.975 6.975v10.050l-6.975 6.975zM22.8 7.575l-6.375-6.375h-8.85l-6.375 6.375v8.775l6.375 6.375h8.775l6.375-6.375v-8.775zM16.425 16.125v-8.55h2.7s2.7 0 2.7 2.7c0 3.3-3.975 3.075-3.975 3.075v2.7h-1.425zM20.325 10.35c0-1.725-2.4-1.2-2.4-1.2v2.7s2.4 0.15 2.4-1.5zM15.225 13.65c0 2.4-2.7 2.4-2.7 2.4h-2.775v-8.475h2.7s2.4 0.075 2.4 2.1c0 1.575-1.2 2.1-1.2 2.1s1.725 0.075 1.575 1.875zM11.25 9.15v2.1s2.1 0.15 2.1-1.2-2.1-0.9-2.1-0.9zM11.25 12.45v2.1s2.4 0.3 2.4-0.9-0.675-1.2-2.4-1.2zM6.525 13.95h-2.1l-0.45 2.1h-1.875l2.4-8.475h1.8l2.4 8.475h-1.725l-0.45-2.1zM5.475 9.15l-0.75 3.375h1.425l-0.675-3.375z"></path>
</svg>

<svg xmlns="http://www.w3.org/2000/svg" width="24" height="24"><path d="M17.025 24H6.975L0 17.025V6.975L6.975 0h10.05L24 6.975v10.05L17.025 24zM22.8 7.575L16.425 1.2h-8.85L1.2 7.575v8.775l6.375 6.375h8.775l6.375-6.375V7.575zm-6.375 8.55v-8.55h2.7s2.7 0 2.7 2.7c0 3.3-3.975 3.075-3.975 3.075v2.7h-1.425zm3.9-5.775c0-1.725-2.4-1.2-2.4-1.2v2.7s2.4.15 2.4-1.5zm-5.1 3.3c0 2.4-2.7 2.4-2.7 2.4H9.75V7.575h2.7s2.4.075 2.4 2.1c0 1.575-1.2 2.1-1.2 2.1s1.725.075 1.575 1.875zm-3.975-4.5v2.1s2.1.15 2.1-1.2-2.1-.9-2.1-.9zm0 3.3v2.1s2.4.3 2.4-.9-.675-1.2-2.4-1.2zm-4.725 1.5h-2.1l-.45 2.1H2.1l2.4-8.475h1.8l2.4 8.475H6.975l-.45-2.1zm-1.05-4.8l-.75 3.375H6.15L5.475 9.15z"/></svg>
